assets/Apps.svg

<svg xmlns="http://www.w3.org/2000/svg" viewBox="0 0 192 192"><g data-name="trim area"><path d="M68.35 76.15h-36.5A11.77 11.77 0 0 1 20.1 64.4V27.9a11.76 11.76 0 0 1 11.75-11.75h36.5A11.76 11.76 0 0 1 80.1 27.9v36.5a11.77 11.77 0 0 1-11.75 11.75Zm-36.25-12h36v-36h-36Zm128.44 12H124a11.77 11.77 0 0 1-11.71-11.75V27.9A11.76 11.76 0 0 1 124 16.15h36.5a11.76 11.76 0 0 1 11.79 11.75v36.5a11.77 11.77 0 0 1-11.75 11.75Zm-36.25-12h36v-36h-36ZM68.41 169.9h-36.5a11.76 11.76 0 0 1-11.75-11.75v-36.5a11.76 11.76 0 0 1 11.75-11.75h36.5a11.77 11.77 0 0 1 11.75 11.75v36.5a11.77 11.77 0 0 1-11.75 11.75Zm-36.25-12h36v-36h-36Zm128.44 12h-36.51a11.77 11.77 0 0 1-11.75-11.75v-36.5a11.77 11.77 0 0 1 11.75-11.75h36.51a11.76 11.76 0 0 1 11.74 11.75v36.5a11.76 11.76 0 0 1-11.74 11.75Zm-36.26-12h36v-36h-36Z" style="fill:#334056"/><path style="fill:none" d="M0-.06h192v192H0z"/></g></svg>

<svg xmlns="http://www.w3.org/2000/svg" xmlns:xlink="http://www.w3.org/1999/xlink" viewBox="0 0 192 192"><defs><style>.cls-1,.cls-4{fill:none;}.cls-1{clip-rule:evenodd;}.cls-2{clip-path:url(#clip-path);}.cls-3{fill:#334056;}</style><clipPath id="clip-path"><path class="cls-1" d="M1205.1-1879.63v-45c0-27.67-14.77-50.82-40.54-57v-6.13a13.5,13.5,0,0,0-13.52-13.51,13.49,13.49,0,0,0-13.51,13.51v6.13c-25.86,6.13-40.55,29.19-40.55,57v45l-18,18v9h144.16v-9ZM1151-1825.57a18.07,18.07,0,0,0,18-18h-36A18,18,0,0,0,1151-1825.57Z"/></clipPath></defs><g id="trim_area" data-name="trim area"><path class="cls-3" d="M68.35,76.15H31.85A11.77,11.77,0,0,1,20.1,64.4V27.9A11.76,11.76,0,0,1,31.85,16.15h36.5A11.76,11.76,0,0,1,80.1,27.9V64.4A11.77,11.77,0,0,1,68.35,76.15Zm-36.25-12h36v-36h-36Z"/><path class="cls-3" d="M160.54,76.15H124A11.77,11.77,0,0,1,112.29,64.4V27.9A11.76,11.76,0,0,1,124,16.15h36.5A11.76,11.76,0,0,1,172.29,27.9V64.4A11.77,11.77,0,0,1,160.54,76.15Zm-36.25-12h36v-36h-36Z"/><path class="cls-3" d="M68.41,169.9H31.91a11.76,11.76,0,0,1-11.75-11.75v-36.5A11.76,11.76,0,0,1,31.91,109.9h36.5a11.77,11.77,0,0,1,11.75,11.75v36.5A11.77,11.77,0,0,1,68.41,169.9Zm-36.25-12h36v-36h-36Z"/><path class="cls-3" d="M160.6,169.9H124.09a11.77,11.77,0,0,1-11.75-11.75v-36.5a11.77,11.77,0,0,1,11.75-11.75H160.6a11.76,11.76,0,0,1,11.74,11.75v36.5A11.76,11.76,0,0,1,160.6,169.9Zm-36.26-12h36v-36h-36Z"/><rect class="cls-4" y="-0.06" width="192" height="192"/></g></svg>
